assets/img/braze_icons/git-commit.svg

<svg fill="none" height="24" viewBox="0 0 24 24" width="24" xmlns="http://www.w3.org/2000/svg"><path clip-rule="evenodd" d="m16.9 11c-.4633-2.28224-2.481-4-4.9-4-2.41896 0-4.43671 1.71776-4.89998 4h-5.09984c-.55228 0-1 .4477-1 1s.44772 1 1 1h5.09984c.46327 2.2822 2.48102 4 4.89998 4 2.419 0 4.4367-1.7178 4.9-4h5.1c.5523 0 1-.4477 1-1s-.4477-1-1-1z" fill="#801ed7" fill-rule="evenodd"/></svg>

<svg width="24" height="24" viewBox="0 0 24 24" fill="none" xmlns="http://www.w3.org/2000/svg">
<path fill-rule="evenodd" clip-rule="evenodd" d="M16.9 11C16.4367 8.71776 14.419 7 12 7C9.58104 7 7.56329 8.71776 7.10002 11H2.00018C1.4479 11 1.00018 11.4477 1.00018 12C1.00018 12.5523 1.4479 13 2.00018 13H7.10002C7.56329 15.2822 9.58104 17 12 17C14.419 17 16.4367 15.2822 16.9 13H22C22.5523 13 23 12.5523 23 12C23 11.4477 22.5523 11 22 11H16.9Z" fill="#801ED7"/>
</svg>
